X:1
T:Shaky Junction
M:4/4
L:1/8
Q:124
C:Paul Rosen
S:Copyright 2005, Paul Rosen
R:Driving Ethnic
K:Gm
"Gm".GDFDE2DG-|.GDFDE2DD-|"D7"D=E^FGA3A|A>BAG^F2D2|
"Gm".GDFDE2DG-|.GDFDE2DD-|"D7"D=E^FG ABAF|"Gm"G3GG2GG:|
|:"Gm"d2Bc- cBGG|"D7"A>BAG^F2D2|"Gm"d2Bc- cBGB|"Cm"e2e2"Gm"d4|
d2Bc- cBGG|"D7"A>BAG^F2DD-|D=E^FG ABAF|"Gm"G3GG2GG:|
